X: 654
T: Da guandeng
%%abc-version 2.0
%%abcx-abcm2ps-target-version 5.9.1 (29 Sep 2008)
%%abc-creator hum2abc beta
%%abcx-conversion-date 2013/10/02 07:52:30
%%abc-edited-by Helmut Schaffrath
%%humdrum-veritas 2593407684
%%humdrum-veritas-data 653962031
%%continueall 1
%%barnumbers 0
L: 1/8
M: 2/4
K: Eb
z e d c/ d/ [I:setbarnb 1]| 
c GB2 | 
B> g f g | 
f> d c e | 
z f d c/ d/ | 
c GB2 | 
c> e B c | 
B GB2 | 
e B/ c/e2 | 
e c g d/ c/ | 
B cG2 | 
e c g d/ c/ | 
B> cG2 | 
B G F/ G/ B- | 
B GB2 | 
g f/ f/ g e | 
g e d c/ d/ | 
c/ B/ G B c | 
d> cB2 |]  



